X:1
T:A CHILD IS BORN
T:A CHILD IS BORN
T:James W. Kwwfw
T:© James W. Keefe 2012
T:© James W. Keefe 2012
T:© James W. Keefe 2012
T:© James W. Keefe 2012
T:© James W. Keefe 2012
T:© James W. Keefe 2012
T:© James W. Keefe 2012
T:© James W. Keefe 2012
T:© James W. Keefe 2012
C:James W. Kwwfw
Z:© James W. Keefe 2012
%%score [ ( 1 2 ) 3 ( 4 5 ) ( 6 7 ) ]
L:1/8
Q:1/4=108
M:6/8
K:C
V:1 treble nm="Soprano" snm="S"
V:2 treble 
V:3 treble nm="Alto" snm="A"
V:4 treble-8 nm="Tenor" snm="T"
V:5 treble-8 
V:6 bass nm="Bass" snm="B"
V:7 bass 
V:1
!mp!"^Legato" G | G2 G G2 G | A2 G G2 G | f2 f fed | (e3 e) z!mf! G | G2 G G2 G | A2 B c2 d | %7
w: 1.A|child is born to|us this night, While|an- gels sing- * on|high.- * They|bring to us the|ti- dings bright, Ho-|
w: |||||||
 edc c2 B | (c3 c) z!p! G | B2 c ded | c2 A G2!mp! G | d2 e fed | c2 A G2!mf! G | G2 G G2 G | %14
w: sa- * nas fill the|sky.- * For|born to us is a|Sa- viour King, The|one of whom- * the|pro- phets sing. A|child is born to|
w: |||||||
 A2 G G2 f | edc c2 B | (c3 c) z!mf! G | G2 G G2 G | A2 G G2 G | f2 f fed | (e3 e) z G | %21
w: us this night, While|sweet- * ho- sa- nas|ring.- * 2.The|Wis- dom of the|Lord shines down, Up-|on the sta- * ble|poor,- * And|
w: |||||||
 G2 G G2 A | A2 B c2 d | edc c2 B | (c3 c) z!mp! G | B2 c ded | c2 A G2 G | d2 e fed | %28
w: shep- herds come to|Beth- le'hem town, Em-|man- u- el to a-|dore.- * For|born to us is a|Sa- viour King, The|One of whom- * the|
w: |||||||
 c2 A G2!mf! G | G2 G G2 G | A2 G G2 f | edc c2 B | (c3 c) z2 | z6 | z6 | z6 | z6 | z6 | z6 | z6 | %40
w: pro- phets sing; The|Wis- dom of the|Lord shines down, While|sweet- * ho- sa- nas|ring.- *||||||||
w: ||||||||||||
 z6 | z6 | z6 | z6 | z6 | z6 | z6 | z6 | z3 z2!ff! G | G2 G G2 G | A2 G G2 G | f2 f fed | %52
w: ||||||||4.To|You O Bles- sed|Trin- i- ty, To|God- head One- * and|
w: ||||||||*A|Child is born to|us this night, While|an- gels sing- * 0n|
 (e3 e) z G | G2 G G2 G | A2 B c2 d | edc c2 B | (c3 c) z!mp! G | B2 c ded | c2 A G2!mf! G | %59
w: Three,- * All|praise through- out e-|ter- ni- ty, Un-|end- * ing glo- ry|be.- * For|born to us is a|Sa- viour King, The|
w: high.- * They|bring to us the|ti- dings bright, Ho-|sa- * nas fill the|sky.- * For|born to us is a|Sa- viour King, The|
 d2 e fed | c2 A G2!f! G | G2 G G2 G | A2 G G2 f | edc c2 B | (c3 c) z!mf! f | edc c2 B | %66
w: One of whom- * the|pro- phets sing; To|You O Bles- sed|Tri- ni- ty, Let|sweet- * ho- sa- nas|ring. _ While|sweet- * ho- sa nas|
w: One of whom- * the|pro- phets sing. A|Child is born to|us this night, While|sweet- * ho- sa- nas|ring. _ While|sweet- * ho- sa- nas|
 (!fermata!c3 c) z"^rit." f |!ff! edc cd/e/f | (g3 g3) |] %69
w: ring.- * Let|sweet- * ho- sa- * * nas|ring.- *|
w: ring.- * Let|sweet- * ho- * sa- * nas|ring. _|
V:2
 x | x6 | x6 | x6 | x6 | x6 | x6 | x6 | x6 | x6 | x6 | x6 | x6 | x6 | x6 | x6 | z3 z2 G | EDC FED | %18
 F2 E E2 G | GAB B2 G | (G3 G) z D | EDC FED | EGG G2 B/G/ | GG F/G/ A2 F | x6 | G2 A BBG | %26
 E2 F E2 G | F2 G G2 F | E2 F E2 G | EDC FED | FED E2 A | GFF F2 F | (E3 E) z2 | x6 | x6 | x6 | %36
 x6 | x6 | x6 | x6 | x6 | x6 | x6 | x6 | x6 | x6 | x6 | x6 | x6 | x6 | x6 | x6 | x6 | x6 | x6 | %55
 x6 | x6 | x6 | x6 | x6 | x6 | x6 | x6 | x6 | x6 | x6 | x6 | x6 | x6 |] %69
V:3
 G | EDC FED | FEF E2 G | A2 B G2 G | (G3 G) z D | EDC FED | EGG A2 G/F/ | GFE A2 F | (G3 G) z G | %9
 G2 A GGG | G2 F G2 G | F2 G G2 F | E2 F E2 G | G2 E D2 F | F2 F E2 A | GFG DFD | (E3 E) z!mf! G | %17
 C2 C B,2 B, | CDC B,2 B, | DCD G2 F | (C3 C) z B, | C2 C B,2 A, | CEF E2 D/B,/ | CCC A,2 D | %24
 (E3 E) z!mp! D | D2 E FGF | C2 C C2 B, | B,2 C A,2 B, | C2 C C2!mf! B, | C2 E B,2 B, | %30
 C2 B, C2 C | CA,/B,/C DFD | (C3 C) z2 | z6 | z6 | z6 | z6 | z6 | z6 | z6 | z6 | z6 | z6 | z6 | %44
 z6 | z6 | z6 | z6 | z3 z2 G | EDC FED | F2 F E2 G | A2 B G2 G | (G3 G) z D | EDC FED | %54
 EGG G2 B/G/ | GEE F2 F | (G3 G) z G | G2 A GGG | G2 E G2 G | F2 G G2 F | E2 F E2 G | G2 E D2 F | %62
 F2 F E2 A | GFG EFD | (E3 E) z A | GFG A2 G | (!fermata!A3 A) z A | cA/B/c c2 B | (c3 c3) |] %69
V:4
!mp! G | c2 A B2 G | c2 d c2 B | dcc B2 B | (c3 c) z!mf! d | c2 c d2 B | cd/e/f e2 d/B/ | %7
w: 1.A|child is born to|us this night while|an- * gels sing on|high.- * They|bring to us a|ti- * * dings bright, Ho- *|
w: |||||||
 c2 c e2 d | (e3 e) z!p! d | d2 e fed | e2 f e2!mp! d | B2 c c2 G | G2 A c2!mf! d | edc fed | %14
w: sa- nas fill the|sky.- * For|born to us is a|Sa- viour King, The|one of whom the|pro- phets sing, A|child _ is born _ to|
w: |||||||
 dcB c2 c | cA/B/c A2 G | (G3 G) z z | z6 | z6 | z6 | z6 | z6 | z6 | z6 | z6 | z6 | z6 | z6 | z6 | %29
w: us- * this night, While|sweet- * * ho- sa- nas|ring.- *|||||||||||||
w: |||||||||||||||
 z6 | z6 | z6 | z3 z2!f! G | G2 A B2 c | f2 d e2 G | f2 f fed | (e3 e) z d | cBA dcB | e2 d c2 d | %39
w: |||3.Then|wise- men three come|from a- far, The|King of kings to be-|hold,- * Di-|rec- * ted by- * the|heav'n- ly star, Their|
w: ||||||||||
 edc c2 B | (c3 c) z!mp! G | B2 c ded | c2 A G2!mf! G | d2 e fed | c2 A G2!f! G | edc fed | %46
w: won- der- ful gifts un-|fold- * For|born to us is a|Sa- viour King, The|one of whom- * the|pro- phets sing. The|wise- * men three- * come|
w: |||||||
 c2 d e2 f | edc c2 B | (c3 c2)!ff! G | G2 E D2 F | c2 d c2 B | dcc B2 B | (c3 c) z d | c2 c d2 B | %54
w: from a- far, While|sweet- * ho- san- nas|ring.- * 4.To|You O Bles- sed|Tri- ni- ty, To|God- * head One in|Three,- * All|praise through- out e-|
w: ||* * *A|Child is born to|us this night, While|an- * gels sing on|high.- * They|bring to us the|
 cd/e/f e2 d/B/ | cAA A2 d | (e3 e) z!mp! d | d2 e fed | e2 f e2!mf! B | B2 c c2 G | G2 A c2!f! d | %61
w: ter- * * ni- ty, Un- *|end- * ding glo- ry|be.- * For|born to us is a|Sa- viour King, The|One of whom the|pro- phets sing; To|
w: ti- * * dings bright, Ho- *|sa- * nas fill the|sky. _ For|born to us is a|Sa- viour King, The|One of whom the|pro- phets sing. A|
 edc fed | cdB c2 c | cA/B/c A2 G | (G3 G) z!mf! c | cA/B/c d2 d | (!fermata!e3 e) z f | %67
w: You- * O Bles- * sed|Tri- * ni- ty, Let|sweet- * * ho- sa- nas|ring.- * While|sweet- * * ho- sa- nas|ring.- * Let|
w: Child- * is born- * to|us- * this night, While|sweet- * * ho- sa- nas|ring. _ While|sweet- * * ho- sa- nas|ring.- * Let|
!ff! gff f2 d | (e3 e3) |] %69
w: sweet- * ho- sa- nas|ring.- *|
w: sweet- * ho- sa- nas|ring. _|
V:5
 x | x6 | x6 | x6 | x6 | x6 | x6 | x6 | x6 | x6 | x6 | x6 | x6 | x6 | x6 | x6 | x6 | x6 | x6 | x6 | %20
 x6 | x6 | x6 | x6 | x6 | x6 | x6 | x6 | x6 | x6 | x6 | x6 | z3 z2 G | G2 G G2 G | A2 G G2 G | %35
 dcc BBB | (G3 G) z G | G2 G G2 G | A2 B c2 B | GGG A2 F | G3 G z G | G2 A BBB | G2 A G2 G | %43
 B2 c c2 G | G2 F E2 G | G2 G G2 G | A2 G G2 A | cA/B/c AFG | (G3 G2) z | x6 | x6 | x6 | x6 | x6 | %54
 x6 | x6 | x6 | x6 | x6 | x6 | x6 | x6 | x6 | x6 | x6 | x6 | x6 | x6 | x6 |] %69
V:6
 G, | C,2 C, B,,2 B,, | A,,2 C, C,2 B,, | A,,2 A,, G,,2 D, | (C,3 C,) z B,, | C,2 C, B,,2 G, | %6
 F,2 G, A,2 G, | C,D,F, A,2 B, | (C3 C) z B, | G,2 F, D,B,,B,, | C,2 C, C,2 G, | D,2 C, A,,2 B,, | %12
 C,2 C, C,2 B,, | C,2 C, B,,2 B,, | F,2 G, C,2 F, | C,2 E, D,2 G, | (C,3 C,) z z | z6 | z6 | z6 | %20
 z6 | z6 | z6 | z6 | z6 | z6 | z6 | z6 | z6 | z6 | z6 | z6 | z3 z2!f! G, | G,F,E, F,E,D, | %34
 F,2 F, E,2 F, | A,2 E, F,F,G, | (E,3 E,) z B,, | C,2 C, D,2 E, | C,D,/E,/F, E,2 D, | %39
 C,E,G, F,2 D, | (E,3 E,) z!mp! D, | D,2 E, F,G,G, | E,2 F, E,2 D, | F,2 G, G,2 F, | %44
 E,2 F, C,2 D, | E,2 E, G,2 F, | F,D,F, G,2 A, | G,F,F, F,2 F, | (E,3 E,2) G, | C,2 C, B,,2 B,, | %50
 A,,2 C, C,2 B,, | A,,2 A,, G,,2 D, | (C,3 C,) z B,, | C,2 C, B,,2 E, | F,2 G, A,2 G, | %55
 C,E,F, A,2 B, | (C3 C) z B, | G,2 F, D,B,,B,, | C,2 C, C,2 G, | D,2 C, A,,2 B,, | C,2 C, C,2 B,, | %61
 C,2 C, B,,2 B,, | F,2 G, C,2 F, | C,2 D, F,2 G, | (C,3 C,) z F, | C,2 E, F,2 G, | %66
 (!fermata!A,3 A,) z F, | C,2 D,/F,/ A,2 G, | (C,3 C,3) |] %69
V:7
 x | x6 | x6 | x6 | x6 | x6 | x6 | x6 | x6 | x6 | x6 | x6 | x6 | x6 | x6 | x6 | x6 | x6 | x6 | x6 | %20
 x6 | x6 | x6 | x6 | x6 | x6 | x6 | x6 | x6 | x6 | x6 | x6 | z3 z2 G, | C,2 C, B,,2 B,, | %34
 A,,G,,B,, C,2 B,, | A,,2 A,, G,,G,,D, | (C,3 C,) z B,, | C,2 C, B,,2 G,, | F,,2 G,, A,,2 G,, | %39
 C,E,E, A,,2 B,, | (C,3 C,) z B,, | G,,2 F,, G,,B,,B,, | C,2 D, C,2 B,, | B,,2 C, A,,2 B,, | %44
 C,2 C, C,2 B,, | B,,2 C, B,,2 B,, | F,,2 B,, C,2 C, | C,2 D, D,2 D, | (C,3 C,2) z | x6 | x6 | x6 | %52
 x6 | x6 | x6 | x6 | x6 | x6 | x6 | x6 | x6 | x6 | x6 | x6 | x6 | x6 | x6 | x6 | x6 |] %69

